images/icons/twitter.svg

<svg width="20" height="16" viewBox="0 0 20 16" fill="none" xmlns="http://www.w3.org/2000/svg">
<path d="M19.6 1.89999C18.9 2.19999 18.1 2.4 17.3 2.5C18.1 2 18.8 1.2 19.1 0.300003C18.3 0.800003 17.5 1.1 16.5 1.3C15.8 0.500003 14.7 0 13.6 0C11.4 0 9.59999 1.8 9.59999 4C9.59999 4.3 9.6 4.59999 9.7 4.89999C6.4 4.69999 3.39999 3.1 1.39999 0.699997C1.09999 1.3 0.899994 2 0.899994 2.7C0.899994 4.1 1.6 5.3 2.7 6C2 6 1.39999 5.8 0.899994 5.5C0.899994 7.4 2.29999 9.09999 4.09999 9.39999C3.79999 9.49999 3.4 9.5 3 9.5C2.7 9.5 2.5 9.49999 2.2 9.39999C2.7 11 4.2 12.2 6 12.2C4.6 13.3 2.9 13.9 1 13.9C0.7 13.9 0.4 13.9 0 13.8C1.8 14.9 3.9 15.6 6.2 15.6C13.6 15.6 17.6 9.5 17.6 4.2V3.7C18.4 3.4 19.1 2.69999 19.6 1.89999Z" fill="white"/>
</svg>

<svg width="20" height="16" fill="none" xmlns="http://www.w3.org/2000/svg"><path d="M19.6 1.9c-.7.3-1.5.5-2.3.6.8-.5 1.5-1.3 1.8-2.2-.8.5-1.6.8-2.6 1C15.8.5 14.7 0 13.6 0c-2.2 0-4 1.8-4 4 0 .3 0 .6.1.9C6.4 4.7 3.4 3.1 1.4.7c-.3.6-.5 1.3-.5 2 0 1.4.7 2.6 1.8 3.3C2 6 1.4 5.8.9 5.5c0 1.9 1.4 3.6 3.2 3.9-.3.1-.7.1-1.1.1-.3 0-.5 0-.8-.1.5 1.6 2 2.8 3.8 2.8-1.4 1.1-3.1 1.7-5 1.7-.3 0-.6 0-1-.1 1.8 1.1 3.9 1.8 6.2 1.8 7.4 0 11.4-6.1 11.4-11.4v-.5c.8-.3 1.5-1 2-1.8Z" fill="#fff"/></svg>
